X:1
T:Title
%%score { ( 1 4 ) | ( 2 3 ) }
L:1/8
M:4/4
K:Bb
V:1 treble nm="Grand Piano"
V:4 treble 
V:2 bass 
V:3 bass 
V:1
 z4 z2[Q:1/4=112] [DF]2 | [DB]2 [Fd]2 [Ec]2 [EA]2 | B6[K:bass][K:treble] z2 | GF=EF G2 [_EA]2 | %4
 [DB]6 F2 | c2 =B2 c2 F2 | [Fd]2 [=E_d]2 [F=d]2 [DFB]2 | A6 z2 | [A,F]6 [A,F]2 | [DB]2 d2 c2 A2 | %10
 B6 z2 | GFGA [B,GB]2 [Gc]2 | [^Fd]6 [Fd]2 | [Ge]4 [Gc]4 | B3 c d2 e2 | d2 B2 B2 A2 | %16
[M:1/4] [B,DB]2 |[M:3/4] B2 A2 G2 |[M:4/4] F4 [Fe]4 | [Fd]6[K:bass][K:treble] z2 | d2 c2 d2 c2 | %21
 [DB]6 [DB]2 | c2 =B2 c2 F2 | [FB]2 [Fc]2 [Fd]2 [Fd]2 | c2 c2 d2 [B=e]2 | [Af]2 E2 D2 F>F | %26
 [DB]2 [Fd]4 [Ec]>[Fd] | [DB]>[Ec] [Fd]4 [^Fc]2 | [GB]2 [EG]2 [GB]2 [Gc]2 | [^Fd]6 [Fd]2 | %30
 [Ge]2 [Ge]2 [Gd]2 [Gd]2 | [Gc]2 [Gc]2 [GB]2 [GB]2 |[M:6/4] [Bf]6 [Af]6 |[M:3/4] [DB]6 |] %34
V:2
 z4 z2 [B,,B,]2 | z4 A,2 z2 | B,,2 B,,2 B,,2 F,2 | G,F,E,F, G,2 [C,F,]2 | [B,,F,]6 [F,A,]2 | %5
 [F,A,E]2 [F,_A,D]2 [F,=A,E]2 [F,A,E]2 | [B,,B,]2 [B,,B,]2 B,,2 B,,2 | C,4 z2 G2 | F,6 F,2 | %9
 z2 F2 [A,E]2 [CE]2 | [B,,B,]2 [B,,G,]2 [B,,F,]2 F,2 | G,F,G,A, E,2 [E,G,]2 | [D,A,]6 [D,A,]2 | %13
 [C,C]4 [E,C]4 | D3 C B,2 [F,A,F]2 | [F,B,F]2 [F,DF]2 [F,DF]2 [F,CE]2 |[M:1/4] B,,2 | %17
[M:3/4] B,2 A,2 G,2 |[M:4/4] A,4 A,4 | B,4 z4 | [F,B,F]2 [F,A,F]2 [F,B,F]2 [F,A,E]2 | %21
 [B,,B,]6 [B,,B,]2 | [F,A,F]2 [F,_A,F]2 [F,=A,F]2 [E,A,]2 | [D,B,]2 [C,A,]2 [B,,B,]2 [B,,B,]2 | %24
 [F,A,F]2 [F,A,F]2 [B,F]2[K:bass] [G,C]2 | [F,C]2 G,2 F,2 E>E | [B,,B,]2 [B,,B,]4 [F,A,]>[F,A,] | %27
 [B,,B,]>[B,,B,] [B,,B,]4 [D,A,]2 | [E,E]2 [E,B,]2 [E,B,]2 [E,G,]2 | [D,A,]6 [D,A,]2 | %30
 [C,C]2 [C,C]2 [C,=B,]2 [D,B,]2 | [E,C]2 [E,C]2 [=E,_D]2 [E,D]2 |[M:6/4] [F,D]6 [F,E]6 | %33
[M:3/4] [B,,B,]6 |] %34
V:3
 x8 | [B,,B,]4 F,2- [F,C]2 | x8 | x8 | x8 | x8 | x8 | z4 C,4 | x8 | [B,,B,]4 F,4 | x8 | x8 | x8 | %13
 x8 | [F,F]6 z2 | x8 |[M:1/4] x2 |[M:3/4] x6 |[M:4/4] F,2 z2 C,2 z2 | B,,2 z2 z2 [F,A,F]2 | x8 | %21
 x8 | x8 | x8 | x6[K:bass] x2 | z4 z2 [E,C]2 | x8 | x8 | x8 | x8 | x8 | x8 |[M:6/4] x12 | %33
[M:3/4] x6 |] %34
V:4
 x8 | x8 | [B,D]2[K:bass] [G,E]2 [F,D]2[K:treble] F2 | x8 | x8 | x8 | x8 | [CF]4 [B,=E]4 | x8 | %9
 x8 | D2 E2 D2 F2 | x8 | x8 | x8 | x8 | x8 |[M:1/4] x2 |[M:3/4] x6 |[M:4/4] z2 D,2 z2 F,2 | %19
 z2[K:bass] D,F, B,2[K:treble] c2 | x8 | x8 | x8 | x8 | x8 | x8 | x8 | x8 | x8 | x8 | x8 | x8 | %32
[M:6/4] x12 |[M:3/4] x6 |] %34

